X:327
T:
R:polska
S:Efter »Florsen» i Burs.
O:Gotland, Burs
M:3/4
L:1/16
K:G
D2EF GFED CB,A,G,|G,3d d2c2 c2B2|cBcA GFED CB,A,G,|G,3d d2c2 c2B2|
G3g gfge e2c2|c2ef g2fe e2d2|d3g gfge e2c2|c2ef g2fe e2d2|
(db)(bd) (ca)(ac) c2Ac|BAGF F4 G4::B2BA c2cA B2AB|G3g gfdf a2g2|
B2BG, c2cG, cBAB|G2Bd gfdf a2g2|B2AB c2e2 Le3c|c2BA B2d2 Ld3=f|
edcB c2e2 Le3c|c2BA B2d2 Ld4|(db)(bd) (ca)(ac) c2Ac|BAGF F4 G4:|

